svg/check-ins/bgcheck-check.svg

<svg width="16" height="16" viewBox="0 0 16 16" fill="none" xmlns="http://www.w3.org/2000/svg">
<path d="M15.247 2.48725L8.47801 0.270682C8.16735 0.169701 7.83267 0.169701 7.52201 0.270682L0.753034 2.48725C0.645208 2.52234 0.551386 2.5909 0.485205 2.68296C0.419024 2.77502 0.383934 2.88578 0.385035 2.99915V7.72122C0.384507 8.5534 0.576394 9.37443 0.945709 10.1202C1.31502 10.866 1.85177 11.5163 2.51403 12.0204L7.06901 15.4907C7.33656 15.6945 7.66363 15.8049 8.00001 15.8049C8.33639 15.8049 8.66346 15.6945 8.93101 15.4907L13.486 12.0204C14.1483 11.5163 14.685 10.866 15.0543 10.1202C15.4236 9.37443 15.6155 8.5534 15.615 7.72122V2.99915C15.6161 2.88578 15.581 2.77502 15.5148 2.68296C15.4486 2.5909 15.3548 2.52234 15.247 2.48725ZM11.431 6.61844L7.49101 10.6886C7.48058 10.6993 7.46814 10.7077 7.4544 10.7135C7.44066 10.7193 7.42591 10.7223 7.41101 10.7223C7.39611 10.7223 7.38136 10.7193 7.36762 10.7135C7.35389 10.7077 7.34144 10.6993 7.33101 10.6886L4.56902 7.8492C4.5488 7.82847 4.53749 7.80066 4.53749 7.77171C4.53749 7.74276 4.5488 7.71496 4.56902 7.69423L5.65802 6.57445C5.66836 6.56384 5.68072 6.5554 5.69438 6.54964C5.70803 6.54389 5.7227 6.54092 5.73752 6.54092C5.75234 6.54092 5.767 6.54389 5.78066 6.54964C5.79431 6.5554 5.80667 6.56384 5.81702 6.57445L7.32401 8.12514C7.33743 8.13809 7.35536 8.14533 7.37401 8.14533C7.39266 8.14533 7.41059 8.13809 7.42401 8.12514L10.144 5.3097C10.1544 5.29893 10.1668 5.29037 10.1805 5.28452C10.1943 5.27867 10.2091 5.27565 10.224 5.27565C10.2389 5.27565 10.2537 5.27867 10.2675 5.28452C10.2812 5.29037 10.2936 5.29893 10.304 5.3097L11.427 6.46547C11.4472 6.48558 11.4588 6.51268 11.4596 6.54115C11.4603 6.56963 11.4501 6.5973 11.431 6.61844Z" fill="black"/>
</svg>

<svg xmlns="http://www.w3.org/2000/svg" viewBox="0 0 16 16"><title>bgcheck-check</title><g id="Layer_1" data-name="Layer 1"><path d="M15.247,2.488,8.478.271a1.546,1.546,0,0,0-.956,0L.753,2.488A.533.533,0,0,0,.385,3V7.723a5.4,5.4,0,0,0,2.129,4.3l4.555,3.471a1.536,1.536,0,0,0,1.862,0l4.555-3.471a5.4,5.4,0,0,0,2.129-4.3V3A.533.533,0,0,0,15.247,2.488ZM11.431,6.62l-3.94,4.071a.112.112,0,0,1-.16,0L4.569,7.851a.111.111,0,0,1,0-.155l1.089-1.12a.111.111,0,0,1,.159,0L7.324,8.127a.072.072,0,0,0,.1,0l2.72-2.816a.111.111,0,0,1,.16,0l1.123,1.156A.111.111,0,0,1,11.431,6.62Z"/></g></svg>
